X:1
T:James Gibb editions
T:L'homme qui est - Clemens non Papa
T:#
%%score [ 1 2 3 4 ]
L:1/8
Q:1/4=180
M:none
K:F
V:1 treble nm="Soprano" snm="S"
V:2 treble nm="Alto" snm="A"
V:3 treble-8 nm="Tenor" snm="T"
V:4 bass nm="Bass" snm="B"
V:1
"^L'homme qui est en ce monde""^Jacobus Clemens non Papa\n(1510-1556)" z4 G4 G4 G4 | F4 F4 B4 B4 | %2
w: L'hom- me qui|est en ce mon-|
 A4 G4 A8- | A8 z4 F4 | G4 G4 F4 A4 | B4 c4 A8 | z4 d4 d4 c4 | B4 A4 G8 | (F6 GA) B4 (A4- | %9
w: de pre- cent|* En|son vi- vant, en|son vi- vant,|en son vi-|vant voit plu-|sieurs * * beaux pas\-|
 A2 G2) (G8 F4) | G8 z4 B4- | B4 G4 A8 | A8 d4 c4- | c4 B8 A4- | A4 (G8 F4- | F4 D4 d4 c4 | %16
w: * * sai\- *|ges Mais|* il ne|voit au moins|* bien peu|* sou\- *|* vent, au moins|
 c4 B8 (A2 G2) | A4 f4 f4 e4 | d4 d4 c4 c4 | d4 c6 B2 B4- | B4 A4) B8 | B2 B2 B2 B2 A4 F2 F2 | %22
w: bien peu sou\- *|vent, Mais il ne|voit au moins bien|peu sou\- * *|* * vent|Chan- tres est- re ri- ches et|
 G2 G2 A2 B2 (c2 B4 AG) | F8 f2 f2 d2 d2 | _e4 c2 c2 B2 c2 d4- | d2 =B2 ^c4 d8 | d6 d2 c2 c2 c4 | %27
w: Doc- teurs est- re sai\- * * *|ges, Chan- tres est- re|ri- ches et Doc- teurs est\-|* re sai- ges,|Chan- tres est- re ri-|
 B4 B4 A2 A2 A2 A2 | G4 G4 F4 F2 F2 | _E2 F2 (G8 ^F4) | G16- | G8 | G16 |] %33
w: ches et Doc- teurs est- re|sai- ges, et Doc- teurs|est- re sai\- *|ges.|||
V:2
 D8 D4 E4 | D4 D4 F4 F4 | F4 D4 (F8 | E8) z4 D4 | D4 E4 D6 E2 | F4 G8 F4 | B8 (A6 G2) | %7
w: L'hom- me qui|est en ce mon-|de pre- cent|* En|son vi- vant, en|son vi- vant,|en son *|
 (F2 _E2) F4 B,4 C4 | (D6 _E2) F4 (E4- | !courtesy!_E4 C4) D8 | B,4 B4 A4 (G4- | G2 F2 E2 D2) E8 | %12
w: vi\- * vant voit plu-|sieurs * beaux pas\-|* * sai-|ges, plu- sieurs pas\-|* * * * sai-|
 D4 A4 B4 G4 | A2 A2 F4 G4 _E4 | F4 D4 _E4 C4 | z4 D4 F4 F4 | G4 G4 F8 | z4 A4 A4 A4 | %18
w: ges Mais il ne|voit, mais il ne voit,|mais il ne voit,|au moins bien|peu sou- vent,|Mais il ne|
 F4 G4 E4 (F4- | F2 D2 E2 F2) G8 | F8 D8 | G2 G2 F2 G2 E4 D4 | z4 D4 _E2 E2 C2 C2 | %23
w: voit, au moins bien|* * * * peu|sou- vent.|Chan- tres est- re ri- ches|et Doc- teurs est- re|
 D4 A,4 A2 A2 B2 B2 | G4 A4 F4 G2 G2 | F2 D2 E4 D4 A4- | A2 A2 A2 B2 G4 A2 A2 | F2 F2 F2 G2 E4 D4 | %28
w: sai- ges, Chan- tres est- re|ri- ches et Doc- teurs|est- re sai- ges, Chan\-|* tres est- re ri- ches et|Doc- teurs est- re sai- ges,|
 z4 D4 C4 D4 | B,4 (_E4 D8) | B,4 D4 _E2 E2 E2 D2 | _E8 | D16 |] %33
w: Chan- tres est-|re ri\- *|ches et Doc- teurs est- re|sai-|ges.|
V:3
 z4 G4 B4 c4 | A4 A4 d4 d4 | c4 (B4 c4 d4- | d4 ^c4) d4 A4 | B4 c4 A4 d4 | d4 e4 d6 e2 | f4 g4 e8 | %7
w: L'hom- me qui|est en ce mon-|de pre\- * *|* * cent En|son vi- vant, en|son vi- vant, en|son vi- vant,|
 z4 d4 d4 G4 | A4 d4 d4 c4 | B4 (A2 G2) A4 A4 | (G2 A2 B2 c2 d2 c2) (_e4- | %11
w: en son vi-|vant voit plu- sieurs|beaux pas\- * sai- ges,|pas\- * * * * * sai\-|
 !courtesy!_e2 d2 d8 ^c4) | d8 z2 g2 e4 | f4 d4 z2 _e2 c4 | d4 B4 z2 c2 A4 | (B6 A2) F4 c4 | %16
w: |ges Mais il|ne voit, Mais il|ne voit, Mais il|ne * voit, Mais|
 d4 _e4 c8 | z4 A4 d4 ^c4 | d4 G4 A4 C4 | B4 c4 d4 _e4 | c8 B4 d4- | d2 d2 d2 d2 c4 A2 A2 | %22
w: il ne voit|Mais il ne|voit, au moins bien|peu sou- vent, peu|sou- vent, Chan\-|* tres est- re ri- ches et|
 B2 G2 c2 B2 G8 | A4 d6 d2 d2 B2 | c4 A2 A2 B2 B2 B2 G2 | A8 d8 | f6 f2 e2 e2 f4 | %27
w: Doc- teurs est- re sai-|ges, Chan- tres est- re|ri ches et Doc- teurs est- re|sai- ges,|Chan- tres est- re ri-|
 d4 d4 ^c2 c2 d2 d2 | B4 B4 A4 (B4- | B2 G2) c2 c2 A8 | G4 B4 c2 c2 c2 B2 | c8 | =B16 |] %33
w: ches et Doc- teurs est- re|sai- ges, Chan- tres|* * est- re ri-|ches et Doc- teurs est- re|sai-|ges.|
V:4
 G,8 G,4 C,4 | D,4 D,4 (B,,2 C,2 D,2 _E,2 | F,4) G,4 F,4 D,4 | A,8 z4 D,4 | G,4 C,4 D,8 | %5
w: L'hom- me qui|est en ce * * *|* mon- de pre-|cent En|son vi- vant,|
 z8 z4 D4 | D4 G,4 A,4 A,4 | B,4 F,4 G,4 _E,4 | D,4 B,,8 C,4 | _E,8 D,4 D,4 | G,4 (G,4 F,4 G,4) | %11
w: en|son vi- vant voit|plu- sieurs beaux pas\-|* sai- ges,|voit plu- sieurs|beaux pas\- * *|
 B,8 A,8 | z4 D4 B,4 C4 | F,4 z2 B,2 G,4 A,4 | D,4 G,4 _E,4 F,4 | B,,4 B,4 B,4 A,4 | %16
w: sai- ges,|Mais il ne|voit, Mais il ne|voit, Mais il ne|voit au moms hien|
 G,4 _E,4 F,8- | F,8 z8 | z8 z4 F,4 | B,4 A,4 G,4 _E,4 | F,8 z4 G,4- | %21
w: peu sou- vent,||au|moins bien peu sou-|vent, Chan\-|
 G,2 A,2 B,2 G,2 A,4 D,2 D,2 | G,2 G,2 F,2 G,2 _E,8 | D,8 D,2 D,2 G,2 G,2 | C,4 F,4 z8 | %25
w: * tres est- re ri- ches et|Doc- teurs est- re sai-|ges, Chan- tres est- re|ri- ches,|
 z8 z4 D4- | D2 D2 D2 B,2 C4 F,2 F,2 | B,2 B,2 B,2 G,2 A,4 D,4 | G,2 G,2 G,2 _E,2 F,4 B,,2 B,,2 | %29
w: Chan\-|* tres est- re ri- ches et|Doc- teurs est- re sai- ges,|Chan- tres est- re ri- ches et|
 _E,2 E,2 E,2 C,2 D,8 | G,,4 G,4 C,2 C,2 C,2 G,2 | C,8 | G,16 |] %33
w: Doc- teurs est- re sai-|ges, et Doc- teurs est- re|sai-|ges.|

